ATB_project/img/object/lables/apple.svg

<svg width="29" height="34" viewBox="0 0 29 34" fill="none" xmlns="http://www.w3.org/2000/svg">
<g clip-path="url(#clip0_135_2233)">
<path d="M24.2249 18.06C24.2785 23.2062 28.9556 24.9216 29.0092 24.9392C28.9734 25.0624 28.2594 27.3759 26.5456 29.7775C25.0639 31.8448 23.5198 33.912 21.0919 33.956C18.7088 34 17.9411 32.6101 15.2098 32.6101C12.4785 32.6101 11.6306 33.9208 9.37234 34C7.03378 34.088 5.24861 31.7568 3.74907 29.6983C0.687516 25.4758 -1.65105 17.7697 1.49084 12.562C3.05286 9.97568 5.83772 8.33946 8.86357 8.30427C11.1664 8.26028 13.3354 9.78215 14.7457 9.78215C16.156 9.78215 18.7891 7.95239 21.565 8.2251C22.7254 8.26908 25.9833 8.67374 28.0809 11.5943C27.9113 11.6911 24.1892 13.7583 24.2338 18.06M19.7352 5.42768C20.9759 3.99379 21.8149 1.9881 21.5918 0C19.7977 0.0703752 17.6287 1.1436 16.3434 2.57749C15.192 3.85304 14.1834 5.88512 14.4511 7.83803C16.4505 7.98758 18.4945 6.87037 19.7352 5.42768Z" fill="#010101"/>
</g>
<defs>
<clipPath id="clip0_135_2233">
<rect width="29" height="34" fill="white"/>
</clipPath>
</defs>
</svg>

<svg width="29" height="34" viewBox="0 0 29 34" fill="none" xmlns="http://www.w3.org/2000/svg"><g clip-path="url(#clip0_135_2233)"><path d="M24.225 18.06c.053 5.146 4.73 6.862 4.784 6.88-.036.122-.75 2.436-2.463 4.837-1.482 2.068-3.026 4.135-5.454 4.179-2.383.044-3.15-1.346-5.882-1.346-2.732 0-3.58 1.31-5.838 1.39-2.338.088-4.123-2.243-5.623-4.302-3.061-4.222-5.4-11.928-2.258-17.136 1.562-2.586 4.347-4.223 7.373-4.258 2.302-.044 4.471 1.478 5.882 1.478 1.41 0 4.043-1.83 6.819-1.557 1.16.044 4.418.449 6.516 3.37-.17.096-3.892 2.163-3.847 6.465M19.735 5.428c1.24-1.434 2.08-3.44 1.857-5.428-1.794.07-3.963 1.144-5.249 2.577-1.151 1.276-2.16 3.308-1.892 5.261 2 .15 4.043-.968 5.284-2.41z" fill="#010101"/></g><defs><clipPath id="clip0_135_2233"><path fill="#fff" d="M0 0h29v34H0z"/></clipPath></defs></svg>
